packages/core/src/svgs/tokens/mono/OMAX.svg

<svg width="24" height="24" viewBox="0 0 24 24" fill="none" xmlns="http://www.w3.org/2000/svg">
<path d="M3.94724 12.0682C3.78408 10.7209 4.37881 9.05256 4.69459 8.38416L5.52615 9.23677C5.12141 10.2285 4.9486 11.2996 5.0209 12.3683L3.94724 12.0682Z" fill="white"/>
<path d="M4.68401 8.33691L5.56294 9.23163L5.55242 9.24742C5.15077 10.2344 4.97977 11.3001 5.05243 12.3631V12.4105L3.9156 12.0948V12.0684C3.83139 11.3895 3.94192 10.6315 4.11033 9.96325C4.27876 9.29478 4.51033 8.71059 4.66822 8.37376L4.68927 8.33691H4.68401ZM4.70506 8.44217C4.54717 8.779 4.33138 9.33689 4.16823 9.97896C3.98394 10.6502 3.91804 11.3484 3.9735 12.0421L4.984 12.3263C4.93138 11.7842 4.97348 10.4842 5.48926 9.24216L4.69979 8.44217H4.70506Z" fill="white"/>
<path d="M20.0525 11.9315C20.2157 13.2789 19.621 14.9472 19.3053 15.6156L18.4736 14.763C18.8784 13.7713 19.0512 12.7002 18.9789 11.6315L20.0525 11.9315Z" fill="white"/>
<path d="M19.3154 15.6684L18.4365 14.7737L18.4471 14.7527C18.8487 13.7657 19.0197 12.7 18.947 11.6369V11.5895L20.0838 11.9053V11.9316C20.1681 12.6106 20.0576 13.3684 19.8892 14.0369C19.753 14.5828 19.5662 15.115 19.3313 15.6263L19.3102 15.6684H19.3154ZM19.2944 15.5632C19.4524 15.2211 19.6681 14.6632 19.8312 14.021C19.9944 13.3631 20.0997 12.621 20.026 11.9579L19.0154 11.6737C19.0681 12.2158 19.026 13.5158 18.5102 14.7578L19.2997 15.5579L19.2944 15.5632Z" fill="white"/>
<path d="M4.5477 5.03687H2.95299L9.65808 11.9946L7.21081 14.5366L4.36875 11.6105L2.04248 13.9999L7.21081 19.2998L12.0002 14.4051L15.6422 18.1788L17.3264 18.3103L12.0002 12.7841L7.21081 17.7577L3.5793 13.9946L4.36875 13.1735L7.21081 16.1682L11.2739 11.9946L4.5477 5.03687Z" fill="white"/>
<path d="M2.87894 5H4.56312L11.3156 11.9998L7.21044 16.2103L4.36839 13.2209L3.62103 13.9946L7.21044 17.7103L11.9998 12.742L17.3787 18.3313L15.626 18.2103L11.9946 14.4525L7.21044 19.3471L2 13.9998L4.36839 11.5683L7.21044 14.4893L9.61571 11.9998L2.87894 5.01052V5ZM3.02631 5.06843L9.69983 11.9946L7.21044 14.5787L4.36839 11.6526L2.08421 13.9998L7.21044 19.2576L11.9998 14.363L15.6577 18.1524L17.2523 18.2682L11.9998 12.8315L7.21044 17.7998L3.53682 13.9946L4.37365 13.1315L7.21571 16.1208L11.2262 11.9998L4.53681 5.06843H3.02631Z" fill="white"/>
<path d="M19.4521 18.9629H21.0467L14.3416 12.0052L16.789 9.46315L19.631 12.3894L21.9573 10L16.789 4.70007L11.9996 9.59477L8.35752 5.8211L6.67334 5.68952L11.9996 11.2158L16.789 6.24215L20.4204 10.0052L19.631 10.8263L16.789 7.8316L12.7258 12.0052L19.4521 18.9629Z" fill="white"/>
<path d="M21.1209 18.9998H19.4367L12.6842 11.9999L16.7894 7.7895L19.6315 10.7789L20.3787 10.0052L16.7894 6.28953L12 11.2578L6.64746 5.70533L8.37374 5.78954L12.0053 9.54738L16.7894 4.65271L21.9998 10L19.6315 12.4316L16.7894 9.51053L14.3841 11.9999L21.1209 18.9894V18.9998ZM20.9735 18.9314L14.2999 12.0052L16.7894 9.42105L19.6315 12.3473L21.9157 10L16.7894 4.74219L12 9.63679L8.34217 5.84743L6.74746 5.73165L12 11.1684L16.7894 6.20005L20.463 10.0052L19.6262 10.8684L16.7841 7.87898L12.7737 11.9999L19.463 18.9261H20.9735V18.9314Z" fill="white"/>
<path d="M7.21045 17.7525V19.2998L11.9999 14.4052L15.6577 18.1998L17.3313 18.3051L11.9999 12.7894L7.21045 17.7577V17.7525Z" fill="white"/>
<path d="M11.9999 12.7421L17.3787 18.3367L15.605 18.1789L11.9999 14.4579L7.21045 19.3526V17.721L11.9999 12.7368V12.7421ZM7.21045 17.7894V19.2525L11.9999 14.3684L15.7103 18.1946L17.3103 18.3314L11.9946 12.8369L7.21045 17.7894Z" fill="white"/>
<path d="M16.7889 6.24742V4.70007L11.9995 9.59477L8.35742 5.8211L6.66797 5.68952L11.9995 11.2158L16.7889 6.24215V6.24742Z" fill="white"/>
<path d="M11.9996 11.2578L6.65234 5.71059L8.37337 5.78954L12.0049 9.54738L16.789 4.65271V6.279L11.9996 11.2578ZM16.789 6.20532V4.73693L11.9996 9.63163L8.3418 5.84217L6.74709 5.72638L11.9996 11.1684L16.789 6.20532Z" fill="white"/>
<path d="M12.1686 20.384C10.522 20.4009 8.90826 19.9222 7.53711 19.0103L8.35289 18.1892C9.47842 18.8614 10.7629 19.2211 12.0739 19.2313C13.9422 19.1682 15.0528 18.5472 15.637 18.1892L17.3211 18.2997C16.5527 19.084 14.7106 20.2735 12.1633 20.384H12.1686Z" fill="white"/>
<path d="M8.34762 18.1525L8.36869 18.163C9.48953 18.8321 10.7686 19.19 12.0739 19.1999C13.329 19.1854 14.5559 18.8268 15.6212 18.163L17.3791 18.3367C16.6054 19.1209 14.7212 20.3051 12.1686 20.4156C10.1266 20.505 8.22132 19.5314 7.52133 19.0367L7.48975 19.0157L8.34762 18.1525ZM15.7369 18.1736C14.6351 18.8572 13.3702 19.2334 12.0739 19.263C11.4317 19.2893 9.80028 19.1103 8.35816 18.2314L7.58449 19.0051C8.30026 19.5052 10.1687 20.4366 12.1633 20.3525C14.6475 20.2471 16.4896 19.0999 17.2791 18.3262L15.7369 18.1736Z" fill="white"/>
<path d="M11.8315 3.61591C13.4782 3.59897 15.0919 4.07759 16.4631 4.98957L15.6473 5.81061C14.5218 5.13841 13.2372 4.77868 11.9263 4.76852C10.0579 4.83168 8.82105 5.48956 8.24211 5.85272L6.71582 5.7264C8.10898 4.42694 9.92726 3.67867 11.8315 3.62117V3.61591Z" fill="white"/>
<path d="M15.6526 5.8475L15.6315 5.83698C14.5106 5.16791 13.2316 4.81 11.9263 4.80015C10.0631 4.86331 8.95268 5.48436 8.36849 5.84225L6.64746 5.71066L6.65798 5.67909C7.43166 4.88962 9.279 3.6949 11.8315 3.58438C13.8736 3.49492 15.7788 4.46858 16.4788 4.96331L16.5104 4.98436L15.6526 5.8475ZM8.26322 5.83172C9.36415 5.14528 10.6293 4.7672 11.9263 4.737C12.5632 4.71069 14.1999 4.88962 15.642 5.76856L16.4157 4.99489C15.0569 4.10138 13.463 3.63236 11.8368 3.64754C9.94487 3.71544 8.13734 4.44777 6.73167 5.71593L8.25796 5.83172H8.26322Z" fill="white"/>
</svg>

<svg xmlns="http://www.w3.org/2000/svg" width="24" height="24" fill="none" viewBox="0 0 24 24">
    <path fill="#fff" d="M3.947 12.068c-.163-1.347.432-3.015.748-3.684l.831.853a7 7 0 0 0-.505 3.131z"/>
    <path fill="#fff" d="m4.684 8.337.879.895-.01.015a7 7 0 0 0-.5 3.116v.048l-1.137-.316v-.027c-.085-.678.026-1.436.194-2.105.169-.668.4-1.252.558-1.59l.021-.036zm.021.105a9 9 0 0 0-.537 1.537 6 6 0 0 0-.195 2.063l1.011.284c-.053-.542-.01-1.842.505-3.084l-.79-.8zm15.348 3.49c.163 1.347-.432 3.015-.748 3.684l-.831-.853a7 7 0 0 0 .505-3.131z"/>
    <path fill="#fff" d="m19.315 15.668-.879-.894.011-.021a7 7 0 0 0 .5-3.116v-.048l1.137.316v.027c.084.679-.026 1.436-.195 2.105a9 9 0 0 1-.558 1.59l-.02.041zm-.02-.105c.157-.342.373-.9.536-1.542.163-.658.269-1.4.195-2.063l-1.01-.284c.052.542.01 1.842-.506 3.084l.79.8zM4.548 5.037H2.953l6.705 6.958-2.447 2.542-2.842-2.927L2.042 14l5.169 5.3L12 14.405l3.641 3.774 1.684.131L12 12.784l-4.79 4.974-3.63-3.763.789-.821 2.842 2.994 4.063-4.173z"/>
    <path fill="#fff" d="M2.879 5h1.684l6.753 7-4.106 4.21-2.842-2.99-.747.775 3.59 3.715L12 12.742l5.379 5.59-1.753-.122-3.631-3.758-4.785 4.895L2 14l2.368-2.432L7.21 14.49 9.616 12 2.879 5.012zm.147.068L9.7 11.995l-2.49 2.584-2.842-2.926L2.084 14l5.126 5.258L12 14.363l3.658 3.79 1.594.115L12 12.831 7.21 17.8l-3.673-3.805.837-.863 2.842 2.989L11.226 12l-6.69-6.932zm16.426 13.895h1.595l-6.705-6.958 2.447-2.542 2.842 2.926L21.957 10 16.79 4.7 12 9.595 8.359 5.82l-1.686-.13L12 11.216l4.789-4.974 3.631 3.763-.789.821-2.842-2.994-4.063 4.173z"/>
    <path fill="#fff" d="M21.12 19h-1.683l-6.753-7 4.105-4.21 2.842 2.989.748-.774-3.59-3.715L12 11.258 6.647 5.705l1.727.085 3.631 3.757 4.784-4.894L22 10l-2.367 2.432-2.843-2.921L14.384 12l6.737 6.99zm-.146-.069L14.3 12.005l2.49-2.584 2.842 2.926L21.915 10l-5.127-5.258L12 9.637l-3.658-3.79-1.595-.115L12 11.168 16.79 6.2l3.673 3.805-.837.863-2.842-2.989-4.01 4.12 6.689 6.927h1.51zM7.21 17.753V19.3L12 14.405l3.658 3.795 1.673.105L12 12.79l-4.79 4.969z"/>
    <path fill="#fff" d="m12 12.742 5.379 5.595-1.774-.158L12 14.458l-4.79 4.895V17.72L12 12.737zM7.21 17.79v1.463L12 14.369l3.71 3.827 1.6.136-5.315-5.494zm9.579-11.543V4.7l-4.79 4.895L8.358 5.82l-1.69-.13 5.331 5.526 4.79-4.974z"/>
    <path fill="#fff" d="M12 11.258 6.652 5.71l1.721.079 3.632 3.757 4.784-4.894v1.626zm4.789-5.053V4.737l-4.79 4.895-3.657-3.79-1.595-.116L12 11.168zm-4.62 14.179a8.2 8.2 0 0 1-4.632-1.374l.816-.82a7.37 7.37 0 0 0 3.72 1.041c1.87-.063 2.98-.684 3.564-1.042l1.684.11c-.768.785-2.61 1.974-5.158 2.085z"/>
    <path fill="#fff" d="m8.348 18.153.02.01a7.33 7.33 0 0 0 3.706 1.037 6.86 6.86 0 0 0 3.547-1.037l1.758.174c-.774.784-2.658 1.968-5.21 2.079-2.042.089-3.948-.885-4.648-1.38l-.031-.02zm7.389.02a7.26 7.26 0 0 1-3.663 1.09c-.642.026-2.274-.153-3.716-1.032l-.774.774c.716.5 2.585 1.432 4.58 1.348 2.484-.106 4.326-1.253 5.115-2.027zM11.832 3.616a8.2 8.2 0 0 1 4.631 1.374l-.816.82a7.37 7.37 0 0 0-3.72-1.041c-1.87.063-3.106.72-3.685 1.084l-1.526-.127a7.85 7.85 0 0 1 5.116-2.105z"/>
    <path fill="#fff" d="m15.653 5.848-.021-.011A7.34 7.34 0 0 0 11.926 4.8c-1.863.063-2.973.684-3.558 1.042l-1.72-.131.01-.032c.774-.79 2.621-1.984 5.174-2.095 2.042-.09 3.947.885 4.647 1.38l.031.02zm-7.39-.016a7.24 7.24 0 0 1 3.663-1.095c.637-.026 2.274.153 3.716 1.032l.774-.774a8.2 8.2 0 0 0-4.58-1.347 8.05 8.05 0 0 0-5.104 2.068l1.526.116z"/>
</svg>
